X: 11678
T: Eileen's Request
R: slip jig
M: 9/8
K: Gmajor
d|gfg dBd g2d|efg dBd ecA|BAG GBd g2d|efg dBg dB:|
a|bab ged g2a|bag bc'd' e'd'c'|bgg agf g2d|efg dBg dBG|
bab ged g2a|bag bc'd' e'd'c'|bc'd' dfa g2d|efg dBg dB||

